X: 13082
T: Fiona Macaskill Of Breakish
R: jig
M: 6/8
K: Bminor
|:B2e ede|zBB dcA|Bee ede|fee ede|
B2e ede|zBB dcA|Bee edB|dcA B2A:|
|:B2E EFA|BdccBc|dcB cAF|EAFF2D|
EAFFDE|FED B,DF|B2E EFA|BdccBc|
def edB|AfA gAa|a2A fAg|a2e fed:|

